dist/svg/u1F522.svg

<?xml version="1.0" encoding="UTF-8"?><svg id="a" xmlns="http://www.w3.org/2000/svg" viewBox="0 0 40 40"><g><rect x="3.5" y="3.5" width="33" height="33" rx="8" ry="8" fill="#e5e8eb"/><path d="M14.186,18.35v-6.755l-2.391,1.419v-1.875l2.816-1.701h1.509v8.912h-1.933Z" fill="#3182f6"/><path d="M21.762,12.297c.047-1.627,1.509-2.888,3.301-2.888,2.134,0,3.291,1.202,3.291,2.771,0,1.202-.672,2.015-1.603,2.911l-1.792,1.709h3.43v1.58h-6.368v-1.167l3.256-2.911c.931-.919,1.132-1.367,1.132-1.992,0-.872-.662-1.309-1.357-1.309-.708,0-1.32,.543-1.32,1.309l-1.969-.012Z" fill="#3182f6"/><path d="M13.375,27.891c.153,.661,.66,1.096,1.403,1.096,.872,0,1.332-.471,1.344-1.143,.012-.766-.365-1.167-1.426-1.167h-.932v-1.603h.896c.778,0,1.214-.437,1.214-1.073,0-.613-.389-1.049-1.132-1.049s-1.226,.472-1.297,1.096h-2.039c.118-1.543,1.556-2.699,3.336-2.699s3.112,.978,3.112,2.452c0,.978-.566,1.78-1.662,1.992,1.202,.153,1.91,.966,1.91,2.051,0,1.615-1.391,2.747-3.324,2.747-1.804,0-3.289-1.072-3.442-2.7h2.04Z" fill="#3182f6"/><path d="M21.486,28.752v-1.403l3.69-5.847h2.393v5.788h1.096v1.462h-1.096v1.686h-1.886v-1.686h-4.196Zm1.933-1.462h2.263v-3.619l-2.263,3.619Z" fill="#3182f6"/></g><rect width="40" height="40" fill="none" opacity="0"/></svg>

<svg id="Layer_1" data-name="Layer 1" xmlns="http://www.w3.org/2000/svg" viewBox="0 0 40 40"><defs><style>.cls-1{fill:#e5e8eb;}.cls-2{fill:#3182f6;}.cls-3{fill:none;opacity:0;}</style></defs><rect class="cls-1" x="3.5" y="3.5" width="33" height="33" rx="8"/><path class="cls-2" d="M14.186,18.35V11.6l-2.392,1.419V11.139l2.816-1.7h1.509V18.35Z"/><path class="cls-2" d="M21.762,12.3a3.144,3.144,0,0,1,3.3-2.888c2.133,0,3.291,1.2,3.291,2.77a4,4,0,0,1-1.6,2.912L24.959,16.8h3.43v1.58H22.021V17.213L25.277,14.3c.931-.919,1.132-1.367,1.132-1.992A1.274,1.274,0,0,0,25.051,11a1.3,1.3,0,0,0-1.32,1.309Z"/><path class="cls-2" d="M13.375,27.891a1.361,1.361,0,0,0,1.4,1.1c.872,0,1.332-.471,1.343-1.143.012-.766-.365-1.168-1.426-1.168h-.931v-1.6h.9A1.065,1.065,0,0,0,15.874,24a1.009,1.009,0,0,0-1.132-1.049,1.225,1.225,0,0,0-1.3,1.1H11.406a3.149,3.149,0,0,1,3.336-2.7c1.78,0,3.112.979,3.112,2.452a1.933,1.933,0,0,1-1.662,1.993,2.01,2.01,0,0,1,1.91,2.051c0,1.615-1.391,2.746-3.324,2.746a3.2,3.2,0,0,1-3.443-2.7Z"/><path class="cls-2" d="M21.486,28.752v-1.4l3.69-5.847h2.393V27.29h1.1v1.462h-1.1v1.686H25.682V28.752Zm1.933-1.462h2.263V23.671Z"/><rect class="cls-3" width="40" height="40"/></svg>
